X:1
T:Title
L:1/8
Q:1/4=100
M:4/4
K:Ab
V:1 treble nm="Grand Piano"
V:1
 CDCB, CD C2 | =EFGA G2 F2 | CDCB, C2 C2 | E=DEF _D4 | CD=EF G2 E2 | =EFGA B2 B2 | =ABcd cB_AG | %7
w: ????~?????~??? * * * * * *|||||||
 AGF=E F4 | c A2 c c2 B2 | B G2 B B2 A2 | A F2 A A2 G2 | =EFG=A B4 | B2 GB B2 A2 | A F2 A A2 G2 | %14
w: |||||||
 G =E2 F G2 C2 | C=D=EG F4 |] %16
w: ||

